svgs/sharp-light/handshake-angle.svg

<svg xmlns="http://www.w3.org/2000/svg" viewBox="0 0 640 512"><!--! Font Awesome Pro 6.6.0 by @fontawesome - https://fontawesome.com License - https://fontawesome.com/license (Commercial License) Copyright 2024 Fonticons, Inc. --><path d="M499.3 35.3L510.6 24 488 1.4 476.7 12.7 425.4 64 224 64l-16 0 0 16 0 224 0 16 16 0 96 0 16 0 0-16 0-80 144 0 0 64-16 0-16 0 0 16 0 56-32 0-16 0 0 16 0 40-16 0-16 0-48 0-96 0-6.6 0-4.7 4.7-56 56L145.4 488 168 510.6l11.3-11.3L230.6 448l89.4 0 48 0 16 0 32 0 16 0 0-16 0-40 32 0 16 0 0-16 0-56 16 0 16 0 0-16 0-25.4 0-45.3 0-25.4 0-16-16 0-160 0 0-24 0-16-32 0 0 16 0 120-64 0 0-192 192 0 6.6 0 4.7-4.7 56-56zM544 201.4l0 45.3 83.3-83.3L638.6 152 616 129.4l-11.3 11.3L544 201.4zM112 128l-16 0 0 16 0 121.4L12.7 348.7 1.4 360 24 382.6l11.3-11.3 88-88 4.7-4.7 0-6.6 0-112 48 0 0-32-64 0z"/></svg>

<svg xmlns="http://www.w3.org/2000/svg" viewBox="0 0 640 512"><!--! Font Awesome Pro 6.4.0 by @fontawesome - https://fontawesome.com License - https://fontawesome.com/license (Commercial License) Copyright 2023 Fonticons, Inc. --><path d="M499.3 35.3L510.6 24 488 1.4 476.7 12.7 425.4 64H224 208V80 304v16h16 96 16V304 224H480v64H464 448v16 56H416 400v16 40H384 368 320 224h-6.6l-4.7 4.7-56 56L145.4 488 168 510.6l11.3-11.3L230.6 448H320h48 16 32 16V432 392h32 16V376 320h16 16V304 278.6 233.4 208 192H496 336V168 152H304v16V288H240V96H432h6.6l4.7-4.7 56-56zM544 201.4v45.3l83.3-83.3L638.6 152 616 129.4l-11.3 11.3L544 201.4zM112 128H96v16V265.4L12.7 348.7 1.4 360 24 382.6l11.3-11.3 88-88 4.7-4.7V272 160h48V128H112z"/></svg>
